X:523
T: WO E KLEINS HUETTLE STEHT
N: E0510
O: Europa, Mitteleuropa, Deutschland, Schwaben
R: Liebes - Lied, Scherz
M: 3/8
L: 1/16
K: G
 | D2G2G2 | F3ED2
c2A2F2 | A2G2z2
D2G2G2 | F3ED2
c2A2F2 | G4z2
A3BA2 | A3BA2
A3BA2 | A3BA2
G2F2E2 | D2c4
BAGFEF | G4z2

